!!!!SEGMENT: pl-wn--sd-xvi-qu-273--042_gomolka-mikolaj--jako-na-puszczy-predkimi-psy-szczwana.krn
!!!cenid: 15xx:247
!!!COM: Gomółka, Mikołaj
!!!COM-rismid: pe30013343
!!!CDT: ~1535->1591/04/30
!!!CNT: Polish
!!!GTL: Melodiae na psalterz polski
!!!OTL: XLII. Jako na puszczy prędkimi psy szczwana
!!!ONB: PSALM XLII. Quemadmodum desiderat cervus ad fontes aquarum,
!!!PDT: 1580
!!!AGN: Sacred
!!!SMS-siglum: PL-Wn
!!!SMS-shelfmark: SD XVI.Qu.273
!!!SMS-shelfwork: 042 G
!!!NIFC-rismid:
!!!ONB-nifc: Melodiae na psalterz polski
**kern	**text	**kern	**text	**kern	**text	**kern	**text
*part4	*part4	*part3	*part3	*part2	*part2	*part1	*part1
*staff4	*staff4	*staff3	*staff3	*staff2	*staff2	*staff1	*staff1
*clefF3	*	*clefC3	*	*clefC2	*	*clefG2	*
*M4/2	*	*M4/2	*	*M4/2	*	*M4/2	*
*k[b-B-]	*	*k[b-]	*	*k[b-]	*	*k[b-]	*
*D:	*	*D:	*	*D:	*	*D:	*
*M2/1	*	*M2/1	*	*M2/1	*	*M2/1	*
*met(C|)	*	*met(C|)	*	*(met(C|)	*	*met(C|)	*
*I"BASSUS.	*	*I"TENOR.	*	*I"ALTUS.	*	*I"CANTUS.	*
=1-	=1	=1-	=1	=1-	=1	=1-	=1
1D/	JA-	1A/	JA-	1d/	JA-	1a/	JA-
2D/	-ko	2A/	-ko	2d/	-ko	2f/	-ko
1G\	ná	1B-/	ná	2d/	ná	2.g/	ná
=2-	=2	=2-	=2	=2-	=2	=2-	=2
.	.	.	.	1d/	pu-	.	.
.	.	.	.	.	.	4a/	pu-
2G\	pu-	4A/	pu-	.	.	2b-/	szczy
.	.	4G/	.	.	.	.	.
2F#\	-szczy	2A/	-szczy	2d/	-szczy	2a/	prę-
2G\	prę-	4B-/	prę-	2g\	prę-	1dd\	-dki-
.	.	4c/	-dki-	.	.	.	.
=3-	=3	=3-	=3	=3-	=3	=3-	=3
2D/	-dki-	4d\	-mi	1a\	-dki-	.	.
.	.	4e\	psy	.	.	.	.
2D/	-mi	2f\	szczw(á-	.	.	2dd\	-mi
2A\	psy	2e\	.	2a\	-mi	2cc#\	psy
2F#X/	szczwá-	2d\	-na)	2a\	psy	2dd\	szczwá-
=4-	=4	=4-	=4	=4-	=4	=4-	=4
1G\	-(na)	1d\	Stru-	1g\	szczw(á-	1b-\	.
2D/	Stru-	2d\	-mię-	2f#\	-na)	2a/	-(na)
1d\	-mię	1f\	-(niá)	1a\	Stru-	2dd\	Stru-
=5-	=5	=5-	=5	=5-	=5	=5-	=5
.	.	.	.	.	.	2ff\	-mię-
2d\	-niá	2f\	szu-	2a\	-mię-	4ee\	-(nie)
.	.	.	.	.	.	4dd\	.
2c#\	szu-	2e\	.	2a\	-niá	2ee\	szu-
2d\	.	2d\	.	2a\	szu-	2ff#\	.
=6-	=6	=6-	=6	=6-	=6	=6-	=6
2G\	-ka	2g\	-ka	2b-\	-ka	2gg\	-ka
2G\	łá-	2g\	łá-	2b-\	łá-	2.dd\	łá-
1D/	-ni	4f\	.	4a\	.	.	.
.	.	4e\	.	4g\	.	4ccny\	.
.	.	4f\	-ni	4a\	-ni	4dd\	-ni
.	.	4g\	.	4b-\	.	4ee\	.
=7-	=7	=7-	=7	=7-	=7	=7-	=7
!!LO:PB:g=original
2r	.	2.a\	zmor-	2.cc\	zmor-	2.ffny\	zmor-
2.Fny\	zmor-	.	.	.	.	.	.
.	.	4g\	-do-	4b-\	-do-	4ee\	-do-
.	.	2.f\	-wá-	2.a\	-wá-	2dd\	-wá-
4G\	-do-	.	.	.	.	.	.
2A\	wá-	.	.	.	.	2cc#\	-na:
.	.	4e\	-na:	4g\	-na:	.	.
=8-	=8	=8-	=8	=8-	=8	=8-	=8
2D/	-na:	2d\	Ták,	2fny\	Ták,	2dd\	Ták,
2D/	Ták,	2.d\	mo-	2a\	mo-	2ff\	mo-
2BB-/	mo-	.	.	2b-\	-(cny)	2dd\	.
.	.	4e\	.	.	.	.	.
2BB-/	-(cny)	2f\	-(cny)	2b-\	Bo-	2dd\	-c(ny)
=9-	=9	=9-	=9	=9-	=9	=9-	=9
!LO:SIC:s=1E-:v	!	!	!	!	!	!	!
1E/	Bo-	1g\	Bo-	1b-\	-że,	1ee-\	Bo-
2BB-/	że,	2f\	-że,	2b-\	mo-	2dd\	-że,
1F\	mo-	1f\	mo-	1a\	.	1ccny\	mo-
=10-	=10	=10-	=10	=10-	=10	=10-	=10
.	.	.	.	.	.	.	.
2D/	-iá	2f\	-iá	2a\	-(iá)	2ff\	-iá
2A\	du-	2c/	du-	2a\	du-	4eeny\	du-
.	.	.	.	.	.	4dd\	.
2B-\	-szá	2d\	-szá	2g\	-szá	4dd\	.
.	.	.	.	.	.	8cc\L	.
.	.	.	.	.	.	8b-\J	-szá
=11-	=11	=11-	=11	=11-	=11	=11-	=11
1A\	li-	1e\	li-	2.a\	li-	4cc\	.
.	.	.	.	.	.	2dd\	li-
.	.	.	.	4g\	.	4cc\	.
2D/	-cha	2d\	-cha	2f\	-cha	2dd\	-cha
4r	.	4r	.	4r	.	4r	.
4D/	Do	4F/	Do	4d/	Do	4a/	Do
=12-	=12	=12-	=12	=12-	=12	=12-	=12
2D/	ćie-	2A/	ćie-	2d/	ćie-	2f/	ćie-
1G\	-bie	2B-/	-bie	2d/	-bie	2g/	-(bie)
.	.	2.B-/	wzdy-	2.d/	wzdy-	1b-\	wzdy-
2GG/	wzdy-	.	.	.	.	.	.
.	.	4c/	.	4e\	.	.	.
=13-	=13	=13-	=13	=13-	=13	=13-	=13
*000/left	*	*	*	*	*	*	*
000D/	-cha.	000d\	-cha.	000f#/	-cha.	000a/	-(cha.)
==	==	==	==	==	==	==	==
*-	*-	*-	*-	*-	*-	*-	*-
!!!RDF**kern: l = terminal long
!!!system-decoration: s1,s2,s3,s4
!!!ENC: Marta Lawrence
!!!END: 2020-02-08
!!!URL-scan: https://polona.pl/item/melodiae-na-psalterz-polski,Nzk3MTM4ODQ/105 Scan on Polona
!!!IIIF: https://polona.pl/iiif/item/Nzk3MTM4ODQ/manifest.json
